X:1
T:Breadline Blues
T:Tom Brier https://musescore.com/user/32597310/scores/5869734 Transcribed from: Album "Constellations", Track 9: "Breadline Blues" 
T:Breadline Blues
C:Tom Brier
%%score { ( 1 3 ) | ( 2 4 ) }
L:1/8
Q:1/2=37
M:4/4
K:Eb
V:1 treble nm="Piano" snm="Pno."
V:3 treble 
V:2 bass 
V:4 bass 
V:1
"^Swing 8ths."!mp! [egbe']4!>(! [cegc']2 [Bdb][G_dg]-!>)! | %1
 [Gdg]!<(! [B_db]3 [Fdf]2 [_Gd_g][FAcf]-!<)! |!>(! [FAcf] [E_Gce]2!>)! =B [Gc]2 e[=G_B]- | %3
!<(! [GB]3 c [DB]2 [CA][B,EG]-!<)! | [B,EG] [EGB]2 c- [EAce]2 [FA_cf][GBeg]- | %5
!<(! [GBeg] [Begb]2 [cc']!<)! [egc'e']2!>(! [ff'][gc'e'g']- | %6
 [gc'e'g'][=ae'][fc'][fac'f']- [fac'f'][^c^c']!>)![dad'][ff'] | [cac'] [Bab]3{/GBd} g [FAdf]3 | %8
!mf! [egbe']4!>(! [cegc']2 [Bdb][G_dg]-!>)! | [Gdg]!<(! [B_db]3 [Fdf]2 [_Gd_g][FAcf]-!<)! | %10
!>(! [FAcf] [E_Gce]2!>)! =B [Gc]2 e[=G_B]- |!<(! [GB]3 c B2 A[EG]-!<)! | %12
!>(! [EG] B2 c [EGBe]2 [Ff][Gceg]- | [Gceg] [Bb]2 [cc'] !fermata![e_gc'e']4!>)! | %14
 [cfac'] [Bb]2 _g [Af]ec[GBe]- |1 [GBe] [E_Gc]3 [E=GB]4 :|2 [GBe] [E_Gc]3 [E=GB]4 |: %17
[Q:1/2=38] z [eg]2 [df]- [df] [ce]2 [Bd]- | [Bd] [ac']2 [gb]- [gb] [fa]2 [eg]- | %19
 [ceg]eg[Bce_g]- [Bceg] f2 [_Gce]- | [Gce][_Gc]e[Gc_g]- [Gcg][Gf]e[F=Bd]- | %21
 [FBd]3 [FG=B]- [FGB] [ABda]2!>(! [G_B=eg]- | [GBeg]3 [=EBc]- [EBc]4!>)! | %23
 [=Ae^f] g2 [Ae=f]- [Aef]4 | [Ad^f] g2 [Ad=f]- [Adf]!f![Ff][^F^f][Gceg]- | %25
 [Gceg][=Af][Gce]!>(![FAd]- [FAd]f[EAc][cfac']- | %26
 [cfac'][db][cfa][=A^f] [Bdg][_Ad=f][Fd][G_d]-!>)! | %27
 [Gd][=B=b][cegc'][_B_b] [^F_d^f][Gg][Bb][EAce]- | [EAce][Ace_g]f[_GAce]- [GAce] [GAc]2 [F=G=Bd]- | %29
!>(! [FGBd][F=B]d[ABda]- [ABda] [GBdg]3!>)! |!mp! [Gcf] e3 [Gc] e2 =B | %31
 c [Aeg]2 c [=A^d^f] [_A=dg]2 [GBe]- |1 [GBe]2!f! (3[B,B][Cc][Dd] [Ee][Ff][^F^f][Geg] :|2 %33
 [GBe]3 [_DGBe]- [DGBe]_d[DB]=B |:[K:Ab]!mp! c a3- a4 | =d a3- a3 g | %36
 [Gdf] e2 [EGc]- [EGc]2 [EGB]c | [EB] [E=A]2 [EAce]- [EAce]4 | d f3- f4 | [df] [DG]3- [DG]4 | %40
 [CFA] [EAc]2 [=DAB]- [DAB][A=da][Ff][^F^f] | [Gdg] e2 B d[EG][FA][GB] | c a3- a4 | =d a3- a3 g | %44
 [_Gcf] e2 [Gc]- [Gc]2 [EB]c | [DB] [DF]2 [DFA]- [DFA]4 | [_FA] d2 [DFB]- [DFB] A2 F | %47
 [CE]3 F AB=B[=DAc]- | [DAc]B[=DF][_D_F]- [DF]E[DB][CEA]- |1 %49
 [CEA]>!<(!E- E/=E/F/^F/ z/ f/e/d/ B/G/=F/_E/!<)! :|2 [CEA]4 GAG^F |: %51
[K:Eb]!mp! G [eg]2 z/ [df]/4[eg]/4 [df] [ce]3 | [FAc] [FAce]2 [FG=B]- [FGB][=Ac][Bd][EG]- | %53
 [EG] [EGc]2 [EG] [=EGB]c[EGB][FA]- | [FA][=EG][FA][Ac]-!<(! [Ac][Bd][ce][df]- | %55
 [df][^c=e][df]!<)![ac']- [ac'] [gb]2 [df] | [Ba] [eg]2 [Ge]- [Ge][Bf] [eg]2 | %57
 [=Acg] [Ac^f]2 [^Fcd]- [Fcd]e [Fcd]2 | [A=Bda] [GBdg]2!>(! d BA^FG-!>)! | %59
 G [eg]2 z/ [df]/4[eg]/4 [df] [ce]3 | [FAc] [FAce]2 [G=B]- [GB]3 [FG_B_d]- | %61
 [FGBd] e2 [_DGB]- [DGB]3 [=B=d]- | [Bd] [ce]2 [EAc]-!>(! [EAc]3 ^c!>)! | d a3- a3 g | %64
 [Gcf] e2 [EG]- [EG]EBc | [FB] A2 [Fce]- [Fce]c [G=Bd]2 |1 [EGc]4 [DFG]AG^F :|2 %67
 [Gc]4!p! !arpeggio!!fermata![dfac']2 !fermata![Bb]2 || %68
!mp! [egbe']4!>(! [cegc']2 [Bdb][G_dg]-!>)! | [Gdg]!<(! [B_db]3 [Fdf]2 [_Gd_g][FAcf]-!<)! | %70
!>(! [FAcf] [E_Gce]2!>)! =B [Gc]2 e[=G_B]- |!<(! [GB]3 c [DB]2 [CA][B,EG]-!<)! | %72
 [B,EG][EGB]3/2c3/2- [EAce]2 [FA_cf][GBeg]- | %73
!<(! [GBeg][Begb]3/2[cc']3/2!<)! [egc'e'][ff']!>(! [^f^f'][gc'e'g']- | %74
 [gc'e'g'][=ae'][fc'][fac'f']- [fac'f'][^c^c']!>)![dad'][ff'] | [cac'] [Bab]2 z{/Bd} (3g_gf (3dcB | %76
!mf! [egbe']4!>(!!>(! [cegc']2 [Bdb][G_dg]!>)!!>)! | [G_dg]!<(! [Bdb]3 [Fdf]2 [_Gd_g][FAcf]-!<)! | %78
!>(! [FAcf] [E_Gce]2!>)! =B [Gc]2 e[=G_B]- |!<(! [GB]3 c B2 A[EG]-!<)! | %80
"^rit."[Q:1/2=35]!>(! [EG] B2 c[Q:1/2=33] [EGBe]2 [Ff][Gceg]- | %81
[Q:1/2=30] [Gceg] [Bb]2[Q:1/2=20] [cc'] !fermata![e_gc'e']4!>)! | %82
[Q:1/2=32]!p! [cfac'] [Bb]2 _g[Q:1/2=30] [Af]ec[GBe]- | %83
[Q:1/2=23] [GBe]2[Q:1/2=17] !arpeggio!!fermata![E_Gc]2 !arpeggio!!fermata![B,E=GB]4 |] %84
V:2
!ped! [E,,B,,G,]2 [G,B,E]E,-!ped-up!!ped! [E,E]E,-[E,D]E,-!ped-up! | %1
!ped! [E,_D]2 [G,B,D]E,,-!ped-up!!mf!!ped! [E,,B,,G,]E,-[E,G,B,D]_G,-!ped-up! | %2
!ped! [A,,E,G,]2 [E,_G,A,C]2!ped-up!!ped! [A,,,A,,]2 [E,G,A,C]2!ped-up! | %3
!ped! [G,,E,B,]2 [G,B,E]2!ped-up!!ped! [F,,D,A,]2 [B,,,B,,]2!ped-up! | %4
!ped! [E,,E,]2 [_D,_D]2!ped-up!!ped! [C,C]2 [_C,_C]2!ped-up! | %5
!ped! [B,,B,]2 [G,,G,]C,,-!ped-up!!ped! [C,,G,,E,]G,- [G,CE]2!ped-up! | %6
!ped! [F,,C,=A,]2 [F,A,CE]2!ped-up!!ped! [=A,,F,C]2 [F,A,CE]F,-!ped-up! | %7
!ped! [F,A,B,D]2 [B,,F,A,]2!ped-up!!ped! [F,A,B,D]2 [B,,,B,,]E,,-!ped-up! | %8
!ped! [E,,,E,,]2 [G,B,E]E,-!ped-up!!ped! [E,E]E,-[E,D]E,-!ped-up! | %9
!ped! [E,_D]2 [G,B,D]E,,-!ped-up!!mf!!ped! [E,,B,,G,]E,-[E,G,B,D]_G,-!ped-up! | %10
!ped! [A,,E,G,]2 [E,_G,A,C]2!ped-up!!ped! [A,,,A,,]2 [E,G,A,C]2!ped-up! | %11
!ped! [G,,E,B,]2 [G,B,E]2!ped-up!!ped! [G,,D,=B,]2 [F,G,B,]2!ped-up! | %12
!ped! [C,C]2 [E,G,C]2!ped-up!!ped! [B,,B,]2 [E,G,B,]2!ped-up! | %13
!ped! [=A,,=A,]2 [F,A,E]2!ped-up!!ped! !fermata![_A,,E,_G,]3 F,,-!ped-up! | %14
!ped! [F,,C,A,]2 [F,A,C]B,,-!ped-up!!ped! [B,,A,]2 [F,A,B,D]2!ped-up! |1 %15
 [E,B,E]!ped! [A,,E,_G,]2 E,,-!ped-up!!ped! [E,,B,,=G,]2 [B,,,B,,]E,,!ped-up! :|2 %16
 [E,B,E]!ped! [A,,E,_G,]2 E,,-!ped-up!!ped! [E,,B,,=G,]!f![E,,E,][D,,D,][_D,,_D,]!ped-up! |: %17
!ped! [C,,C,]2 [F,=A,CE]2!ped-up!!ped! [F,,C,A,]2 [F,A,CE]F,,-!ped-up! | %18
!ped! [F,,D,A,]2 [F,A,B,D]2!ped-up!!ped! [B,,,B,,]2 [=B,,,=B,,]C,,-!ped-up! | %19
!ped! [C,,G,,E,]2 [G,CE]2!ped-up!!ped! [B,,B,]2 [G,CE]A,,-!ped-up! | %20
!ped! [A,,E,_G,]2 [G,A,CE]2!ped-up!!ped! [E,,E,]2 [A,,A,]G,,-!ped-up! | %21
!ped! [G,,D,=B,]2 [G,B,D]G,,-!ped-up!!ped! [G,,G,]G,,-[G,,F,]G,,-!ped-up! | %22
!ped! [G,,=E,]2 [G,B,C=E]2!ped-up!!ped! [C,,G,,E,]2 [G,B,CE]F,,-!ped-up! | %23
!ped! z2 C,F,-!ped-up!!ped! F,E, (3!>!C,!>!^C,!>!D,-!ped-up! | %24
!ped! z2 F,-[F,A,B,D]-!ped-up!!ped! [F,A,B,D]B,,-[B,,,B,,]F,,,-!ped-up! | %25
!ped! [F,,,F,,]2 [F,=A,CE]F,,-!ped-up!!ped! [F,,F,]F,,-[F,,E,]F,,-!ped-up! | %26
!ped! [F,,D,]2 [F,A,B,D][F,A,]-!ped-up!!ped! [B,,F,A,]2 [F,A,B,D]2!ped-up! | %27
!ped! [B,,E,G,]2 [G,B,_D]E,,-!ped-up!!ped! [E,,B,,G,]2 [G,B,D]C,-!ped-up! | %28
!ped! [C,A,C]2 [A,CE]2!ped-up!!ped! [A,,E,_G,]2 [G,A,CE]G,,-!ped-up! | %29
!ped! [G,,D,=B,]2 [G,B,D]2!ped-up!!ped! [G,,D,B,]2 [G,B,D]2!ped-up! | %30
!ped! !arpeggio![C,G,C]4!ped-up!!ped! !arpeggio![B,,G,B,]4!ped-up! | %31
!ped! [A,,A,]2 [F,A,C]=B,,-!ped-up!!ped! [B,,^F,=A,]2 [_B,,=F,_A,]2!ped-up! |1 %32
 [E,B,]2 z2 z [D,,D,] [_D,,_D,]2 :|2!ped! E,,2 [B,,G,]2!ped-up!!ped! [E,G,B,]2 E,,2!ped-up! |: %34
[K:Ab]!ped! z2 E,!>!C-!ped-up!!ped! CA,E,C,!ped-up! | %35
!ped! z2 =D,!>!_C-!ped-up!!ped! CA,F,D,!ped-up! | %36
!ped! [B,,G,D]2 [E,G,B,]2!ped-up!!ped! [E,,E,]2 [_D,,_D,]C,,-!ped-up! | %37
!ped! [C,,E,]2 [F,=A,C]2!ped-up!!ped! [F,,F,]2 [F,A,C]B,,,-!ped-up! | %38
!ped! z2 F,!>!D-!ped-up!!ped! DB,F,D,!ped-up! | %39
!ped! z2 E,-[E,G,B,]-!ped-up!!ped! [E,G,B,]=E,,-[E,,D,G,]F,,-!ped-up! | %40
!ped! [F,,C,A,]2 [F,A,C]F,,-!ped-up!!ped! [F,,=D,A,]2 [B,,,B,,]E,,-!ped-up! | %41
!ped! [E,,B,,G,]2 [E,G,B,D]2!ped-up!!ped! [G,B,DE]2 [E,,E,]A,,-!ped-up! | %42
!ped! z2 E,!>!C-!ped-up!!ped! CA,E,C,!ped-up! |!ped! z2 =D,!>!_C-!ped-up!!ped! CA,F,D,!ped-up! | %44
!ped! [E,,C,_G,]2 [A,CE]2!ped-up!!ped! [A,,A,]2 [A,,G,]D,,-!ped-up! | %45
!ped! [D,,A,,F,]2 [F,A,]2!ped-up!!ped! [D,,D,]2 [E,,E,]_F,-!ped-up! | %46
!ped! [_F,,F,]2 [_F,A,D]2!ped-up!!ped! [D,,D,]2 [D,F,A,]2!ped-up! | %47
!ped! [C,,C,]2 [E,A,C]2!ped-up!!ped! [A,,,A,,]2 [E,A,C]2!ped-up! | %48
!ped! [B,,,B,,]2 [F,A,B,=D]2!ped-up!!ped! [_F,,_F,]2 [E,,E,]2!ped-up! |1 %49
!ped! [A,,E,A,]2 [=A,,E,^F,]2!ped-up!!ped! [B,,E,G,]2 [G,B,D]2!ped-up! :|2 %50
!ped! [A,,E,A,]3 G,,-!ped-up!!ped! [G,,=D,=B,]4!ped-up! |: %51
[K:Eb]!ped! [C,,G,,E,]2 [G,CE]2!ped-up!!ped! [E,,E,]2 [G,CE]F,,-!ped-up! | %52
!ped! [F,,C,A,]2 [F,A,C]2!ped-up!!ped! [G,,D,=B,]2 [G,B,D]2!ped-up! | %53
!ped! [C,,G,,E,]2 [E,G,C]2!ped-up!!ped! [C,,G,,=E,]2 [E,G,B,C]2!ped-up! | %54
!ped! [F,,C,A,]2 [F,A,C]2!ped-up!!ped! [C,,C,]2 [F,A,C]F,,-!ped-up! | %55
!ped! [F,,D,A,]2 [F,A,B,D]2!ped-up!!ped! B,,,2 [D,F,A,B,]E,,-!ped-up! | %56
!ped! [E,,B,,G,]2 [G,B,E]2!ped-up!!ped! [B,,,B,,]2 [E,,E,]D,!ped-up! | %57
!ped! [D,,D,]2 [D,^F,=A,C]2!ped-up!!ped! [F,A,CD]2 [D,,D,]G,,-!ped-up! | %58
!ped! [G,,,G,,]2 [D,G,=B,]G,-!ped-up!!ped! [G,B,DF]2 [G,,F,]2!ped-up! | %59
!ped! [C,,G,,E,]2 [G,CE]2!ped-up!!ped! [E,,E,]2 [G,CE]F,,-!ped-up! | %60
!ped! [F,,C,A,]2 [F,A,C]2!ped-up!!ped! [G,,D,=B,]2 [G,B,D]2!ped-up! | %61
!ped! [G,,E,B,]2 [G,B,_D]2!ped-up!!ped! [E,,E,]2 [E,G,B,]2!ped-up! | %62
!ped! [A,,E,A,]2 [E,A,C]2!ped-up!!ped! [E,,E,]2 [E,A,C]2!ped-up! | %63
!ped! z2 D,!>!_C-!ped-up!!ped! CA, (3F,D,G,,!ped-up! | %64
!ped! [C,,C,]2 [G,CE]2!ped-up!!ped! [C,,C,]2 [G,CE]F,,-!ped-up! | %65
!ped! [F,,C,A,]2 [F,A,C]2!ped-up!!ped! [F,,C,A,]2 [G,,D,=B,]2!ped-up! |1 %66
!ped! [C,G,C]2 (3E,C,^C,!ped-up!!ped! D,G,,-[G,,,G,,]C,,!ped-up! :|2 %67
!ped! [C,E,G,C]4!ped-up!!ped! [D,F,A,B,]3 E,-!ped-up! || %68
!ped! [E,,E,]2 [G,B,E]E,-!ped-up!!ped! [E,E]E,-[E,D]E,-!ped-up! | %69
!ped! [E,_D]2 [G,B,D]E,,-!ped-up!!mf!!ped! [E,,B,,G,]E,-[E,G,B,D]_G,-!ped-up! | %70
!ped! [A,,E,G,]2 [E,_G,A,C]2!ped-up!!ped! [A,,,A,,]2 [E,G,A,C]2!ped-up! | %71
!ped! [G,,E,B,]2 [G,B,E]2!ped-up!!ped! [F,,D,A,]2 [B,,,B,,]2!ped-up! | %72
!ped! [E,,E,]2 [_D,_D]2!ped-up!!ped! [C,C]2 [_C,_C]2!ped-up! | %73
!ped! [B,,B,]2 [G,,G,]C,,-!ped-up!!ped! [C,,G,,E,]G,- [G,CE]2!ped-up! | %74
!ped! [F,,C,=A,]2 [F,A,CE]2!ped-up!!ped! [=A,,F,C]2 [F,A,CE]B,,-!ped-up! | %75
!ped! [B,,F,A,]2 [F,A,B,D]2!ped-up!!ped! !arpeggio![A,B,DF]2 [B,,,B,,]E,,-!ped-up! | %76
!ped! [E,,B,,G,]2 [G,B,E]E,-!ped-up!!ped! [E,E]E,-[E,D]E,-!ped-up! | %77
!ped! [E,_D]2 [G,B,D]E,,-!ped-up!!ped! [E,,B,,G,]E,-[E,G,B,D]_G,-!ped-up! | %78
!ped! [A,,E,G,]2 [E,_G,A,C]2!ped-up!!ped! [A,,,A,,]2 [E,G,A,C]2!ped-up! | %79
!ped! [G,,E,B,]2 [G,B,E]2!ped-up!!ped! [G,,D,=B,]2 [F,G,B,]2!ped-up! | %80
!ped! [C,C]2 [E,G,C]2!ped-up!!ped! [B,,B,]2 [E,G,B,]2!ped-up! | %81
!ped! [=A,,=A,]2 [F,A,E]2!ped-up!!ped! !fermata![_A,,E,_G,]3 F,,-!ped-up! | %82
!ped! [F,,C,A,]2 [F,A,C]B,,-!ped-up!!ped! [B,,A,]2 [F,A,B,D]2!ped-up! | %83
!ped! [E,B,E]2!ped-up!!ped! [A,,E,_G,]2!ped-up!!ped! [E,,B,,=G,]2 !fermata!E,,,2!ped-up! |] %84
V:3
 x8 | x8 | x8 | x8 | x8 | x8 | x8 | x8 | x8 | x8 | x8 | x8 | x8 | x8 | x8 |1 x8 :|2 x8 |: %17
 x G A=A- AFG_A- | Ac^cd- dB=B=c- | x8 | x8 | x8 | x8 | x8 | x8 | x8 | x8 | x8 | x8 | x8 | x8 | %31
 x8 |1 x8 :|2 x8 |:[K:Ab] A8 | A8 | x8 | x8 | [FB]8 | x8 | x8 | x8 | A8 | A8 | x8 | x8 | x8 | x8 | %48
 x8 |1 x4 G4 :|2 x8 |:[K:Eb] x8 | x8 | x8 | x8 | x8 | x8 | x8 | x8 | x8 | x8 | x8 | x8 | A8 | x8 | %65
 x8 |1 x8 :|2 x8 || x8 | x8 | x8 | x8 | x8 | x8 | x8 | x8 | x8 | x8 | x8 | x8 | x8 | x8 | x8 | %83
 x8 |] %84
V:4
 x8 | x8 | x8 | x8 | x8 | x8 | x8 | x8 | x8 | x8 | x8 | x8 | x8 | x8 | x8 |1 x8 :|2 x8 |: x8 | x8 | %19
 x8 | x8 | x8 | x8 | [F,,C,=A,]8 | [F,,D,]8 | x8 | x8 | x8 | x8 | x8 | x8 | x8 |1 x8 :|2 x8 |: %34
[K:Ab] [A,,A,]8 | F,,8 | x8 | x8 | [B,,,B,,]8 | E,,6 x2 | x8 | x8 | [A,,A,]8 | [F,,F,]8 | x8 | x8 | %46
 x8 | x8 | x8 |1 x8 :|2 x8 |:[K:Eb] x8 | x8 | x8 | x8 | x8 | x8 | x8 | x8 | x8 | x8 | x8 | x8 | %63
 F,,8 | x8 | x8 |1 x8 :|2 x8 || x8 | x8 | x8 | x8 | x8 | x8 | x8 | x8 | x8 | x8 | x8 | x8 | x8 | %81
 x8 | x8 | x8 |] %84

